svgs/solid/amp-guitar.svg

<svg xmlns="http://www.w3.org/2000/svg" viewBox="0 0 512 512"><!--! Font Awesome Pro 6.1.2 by @fontawesome - https://fontawesome.com License - https://fontawesome.com/license (Commercial License) Copyright 2022 Fonticons, Inc. --><path d="M192 384c-8.836 0-16 7.164-16 16S183.2 416 192 416s16-7.164 16-16S200.8 384 192 384zM256 384c-8.836 0-16 7.164-16 16S247.2 416 256 416s16-7.164 16-16S264.8 384 256 384zM160 368c8.836 0 16-7.164 16-16S168.8 336 160 336S144 343.2 144 352S151.2 368 160 368zM128 320c8.836 0 16-7.164 16-16S136.8 288 128 288S112 295.2 112 304S119.2 320 128 320zM464 96h-52.35C389.5 69.16 325.8 0 256 0S122.5 69.16 100.3 96H48C21.49 96 0 117.5 0 144v320C0 490.5 21.49 512 48 512h416c26.51 0 48-21.49 48-48v-320C512 117.5 490.5 96 464 96zM416 152c13.25 0 24 10.75 24 24S429.3 200 416 200s-24-10.75-24-24S402.7 152 416 152zM256 48c30.41 0 64.14 24.03 89.71 48H166.2C191.7 72.03 225.5 48 256 48zM344 176c0 13.25-10.75 24-24 24s-24-10.75-24-24S306.7 152 320 152S344 162.7 344 176zM216 176c0 13.25-10.75 24-24 24S168 189.3 168 176S178.7 152 192 152S216 162.7 216 176zM96 152c13.25 0 24 10.75 24 24S109.3 200 96 200S72 189.3 72 176S82.75 152 96 152zM448 448H64V256h384V448zM320 384c-8.836 0-16 7.164-16 16S311.2 416 320 416s16-7.164 16-16S328.8 384 320 384zM128 416c8.836 0 16-7.164 16-16S136.8 384 128 384s-16 7.164-16 16S119.2 416 128 416zM384 384c-8.836 0-16 7.164-16 16S375.2 416 384 416s16-7.164 16-16S392.8 384 384 384zM192 320c8.836 0 16-7.164 16-16S200.8 288 192 288S176 295.2 176 304S183.2 320 192 320zM256 320c8.836 0 16-7.164 16-16S264.8 288 256 288S240 295.2 240 304S247.2 320 256 320zM224 368c8.836 0 16-7.164 16-16S232.8 336 224 336S208 343.2 208 352S215.2 368 224 368zM288 368c8.836 0 16-7.164 16-16s-7.164-16-16-16s-16 7.164-16 16S279.2 368 288 368zM384 320c8.836 0 16-7.164 16-16S392.8 288 384 288s-16 7.164-16 16S375.2 320 384 320zM352 368c8.836 0 16-7.164 16-16s-7.164-16-16-16s-16 7.164-16 16S343.2 368 352 368zM320 320c8.836 0 16-7.164 16-16S328.8 288 320 288s-16 7.164-16 16S311.2 320 320 320z"/></svg>

<svg xmlns="http://www.w3.org/2000/svg" viewBox="0 0 512 512"><!--! Font Awesome Pro 6.2.0 by @fontawesome - https://fontawesome.com License - https://fontawesome.com/license (Commercial License) Copyright 2022 Fonticons, Inc. --><path d="M256 0c-48.9 0-92.5 28.8-121.6 53.8c-15 12.9-27.3 25.7-35.8 35.3c-2.3 2.6-4.3 4.9-6 6.9H64C28.7 96 0 124.7 0 160V448c0 35.3 28.7 64 64 64H448c35.3 0 64-28.7 64-64V160c0-35.3-28.7-64-64-64H419.5c-1.7-2.1-3.8-4.4-6-6.9c-8.5-9.6-20.8-22.4-35.8-35.3C348.5 28.8 304.9 0 256 0zm96.9 96H159.1c2.1-1.9 4.3-3.8 6.5-5.8C192.5 67.2 224.9 48 256 48s63.5 19.2 90.4 42.2c2.2 1.9 4.4 3.9 6.5 5.8zM96 200c-13.3 0-24-10.7-24-24s10.7-24 24-24s24 10.7 24 24s-10.7 24-24 24zm120-24c0 13.3-10.7 24-24 24s-24-10.7-24-24s10.7-24 24-24s24 10.7 24 24zm104 24c-13.3 0-24-10.7-24-24s10.7-24 24-24s24 10.7 24 24s-10.7 24-24 24zm120-24c0 13.3-10.7 24-24 24s-24-10.7-24-24s10.7-24 24-24s24 10.7 24 24zM64 448V256H448V448H64zm64-128c8.8 0 16-7.2 16-16s-7.2-16-16-16s-16 7.2-16 16s7.2 16 16 16zm0 96c8.8 0 16-7.2 16-16s-7.2-16-16-16s-16 7.2-16 16s7.2 16 16 16zm48-64c0-8.8-7.2-16-16-16s-16 7.2-16 16s7.2 16 16 16s16-7.2 16-16zm16-32c8.8 0 16-7.2 16-16s-7.2-16-16-16s-16 7.2-16 16s7.2 16 16 16zm16 80c0-8.8-7.2-16-16-16s-16 7.2-16 16s7.2 16 16 16s16-7.2 16-16zm16-32c8.8 0 16-7.2 16-16s-7.2-16-16-16s-16 7.2-16 16s7.2 16 16 16zm48-64c0-8.8-7.2-16-16-16s-16 7.2-16 16s7.2 16 16 16s16-7.2 16-16zM256 416c8.8 0 16-7.2 16-16s-7.2-16-16-16s-16 7.2-16 16s7.2 16 16 16zm48-64c0-8.8-7.2-16-16-16s-16 7.2-16 16s7.2 16 16 16s16-7.2 16-16zm16-32c8.8 0 16-7.2 16-16s-7.2-16-16-16s-16 7.2-16 16s7.2 16 16 16zm16 80c0-8.8-7.2-16-16-16s-16 7.2-16 16s7.2 16 16 16s16-7.2 16-16zm16-32c8.8 0 16-7.2 16-16s-7.2-16-16-16s-16 7.2-16 16s7.2 16 16 16zm48-64c0-8.8-7.2-16-16-16s-16 7.2-16 16s7.2 16 16 16s16-7.2 16-16zM384 416c8.8 0 16-7.2 16-16s-7.2-16-16-16s-16 7.2-16 16s7.2 16 16 16z"/></svg>
